img/compound-bg-1.svg

<svg xmlns="http://www.w3.org/2000/svg" width="100" height="200" fill="none"><path fill="#2C6269" d="M0 100h100V0H0z"/><path fill="#012F34" fill-rule="evenodd" d="M0 200c-55.228 0-100-44.772-100-100S-55.228 0 0 0s100 44.772 100 100S55.228 200 0 200Zm0-67c-18.225 0-33-14.775-33-33s14.775-33 33-33 33 14.775 33 33-14.775 33-33 33Z" clip-rule="evenodd"/><path fill="#79C8C7" fill-rule="evenodd" d="M0 56h100v4H0v-4Zm0 8h100v4H0v-4Zm100 8H0v4h100v-4ZM0 80h100v4H0v-4Zm100 8H0v4h100v-4ZM0 96h100v4H0v-4Z" clip-rule="evenodd"/><path fill="#F67E7E" fill-rule="evenodd" d="M100 100h-4v4h4v-4Zm-11 0h4v4h-4v-4Zm0 8h4v4h-4v-4Zm4 8h-4v4h4v-4Zm-4 8h4v4h-4v-4Zm4 8h-4v4h4v-4Zm-4 8h4v4h-4v-4Zm-3-40h-4v4h4v-4Zm0 8h-4v4h4v-4Zm-4 8h4v4h-4v-4Zm4 8h-4v4h4v-4Zm-4 8h4v4h-4v-4Zm4 8h-4v4h4v-4Zm14-32h-4v4h4v-4Zm-21-8h-4v4h4v-4Zm0 8h-4v4h4v-4Zm-4 8h4v4h-4v-4Zm4 8h-4v4h4v-4Zm-4 8h4v4h-4v-4Zm4 8h-4v4h4v-4Zm21-24h-4v4h4v-4Zm-28-16h-4v4h4v-4Zm0 8h-4v4h4v-4Zm-4 8h4v4h-4v-4Zm4 8h-4v4h4v-4Zm-4 8h4v4h-4v-4Zm4 8h-4v4h4v-4Zm28-16h-4v4h4v-4Zm-35-24h-4v4h4v-4Zm0 8h-4v4h4v-4Zm-4 8h4v4h-4v-4Zm4 8h-4v4h4v-4Zm-4 8h4v4h-4v-4Zm4 8h-4v4h4v-4Zm35-8h-4v4h4v-4Zm-42-32h-4v4h4v-4Zm0 8h-4v4h4v-4Zm-4 8h4v4h-4v-4Zm4 8h-4v4h4v-4Zm-4 8h4v4h-4v-4Zm4 8h-4v4h4v-4Zm42 0h-4v4h4v-4Zm-49-40h-4v4h4v-4Zm0 8h-4v4h4v-4Zm-4 8h4v4h-4v-4Zm4 8h-4v4h4v-4Zm-4 8h4v4h-4v-4Zm4 8h-4v4h4v-4Z" clip-rule="evenodd"/></svg>

<svg width="100" height="200" viewBox="0 0 100 200" fill="none" xmlns="http://www.w3.org/2000/svg">
<g id="Group 8">
<rect id="Rectangle" width="100" height="100" transform="matrix(1 0 0 -1 0 100)" fill="#2C6269"/>
<path id="Combined Shape Copy" fill-rule="evenodd" clip-rule="evenodd" d="M0 200C-55.2285 200 -100 155.228 -100 100C-100 44.7715 -55.2285 0 0 0C55.2285 0 100 44.7715 100 100C100 155.228 55.2285 200 0 200ZM0 133C-18.2254 133 -33 118.225 -33 100C-33 81.7746 -18.2254 67 0 67C18.2254 67 33 81.7746 33 100C33 118.225 18.2254 133 0 133Z" fill="#012F34"/>
<path id="Combined Shape" fill-rule="evenodd" clip-rule="evenodd" d="M0 56H100V60H0V56ZM0 64H100V68H0V64ZM100 72H0V76H100V72ZM0 80H100V84H0V80ZM100 88H0V92H100V88ZM0 96H100V100H0V96Z" fill="#79C8C7"/>
<path id="Combined Shape_2" fill-rule="evenodd" clip-rule="evenodd" d="M100 100H96V104H100V100ZM89 100H93V104H89V100ZM89 108H93V112H89V108ZM93 116H89V120H93V116ZM89 124H93V128H89V124ZM93 132H89V136H93V132ZM89 140H93V144H89V140ZM86 100H82V104H86V100ZM86 108H82V112H86V108ZM82 116H86V120H82V116ZM86 124H82V128H86V124ZM82 132H86V136H82V132ZM86 140H82V144H86V140ZM100 108H96V112H100V108ZM79 100H75V104H79V100ZM79 108H75V112H79V108ZM75 116H79V120H75V116ZM79 124H75V128H79V124ZM75 132H79V136H75V132ZM79 140H75V144H79V140ZM100 116H96V120H100V116ZM72 100H68V104H72V100ZM72 108H68V112H72V108ZM68 116H72V120H68V116ZM72 124H68V128H72V124ZM68 132H72V136H68V132ZM72 140H68V144H72V140ZM100 124H96V128H100V124ZM65 100H61V104H65V100ZM65 108H61V112H65V108ZM61 116H65V120H61V116ZM65 124H61V128H65V124ZM61 132H65V136H61V132ZM65 140H61V144H65V140ZM100 132H96V136H100V132ZM58 100H54V104H58V100ZM58 108H54V112H58V108ZM54 116H58V120H54V116ZM58 124H54V128H58V124ZM54 132H58V136H54V132ZM58 140H54V144H58V140ZM100 140H96V144H100V140ZM51 100H47V104H51V100ZM51 108H47V112H51V108ZM47 116H51V120H47V116ZM51 124H47V128H51V124ZM47 132H51V136H47V132ZM51 140H47V144H51V140Z" fill="#F67E7E"/>
</g>
</svg>
